themes/default/assets/images/icons/mid/agile-development.svg

<?xml version="1.0" encoding="UTF-8"?>
<svg width="100px" height="75px" viewBox="0 0 100 75" version="1.1" xmlns="http://www.w3.org/2000/svg" xmlns:xlink="http://www.w3.org/1999/xlink">
    <!-- Generator: sketchtool 59 (101010) - https://sketch.com -->
    <title>EFF8247C-853E-481E-B4CA-BC8CB2D58018</title>
    <desc>Created with sketchtool.</desc>
    <g id="Page-1" stroke="none" stroke-width="1" fill="none" fill-rule="evenodd">
        <g id="Icons" transform="translate(-374.000000, -2716.000000)" fill-rule="nonzero">
            <g id="mid-icon-agiledevelopment" transform="translate(374.000000, 2716.000000)">
                <path d="M5.64356436,64.1447368 C7.98493073,64.1500949 9.88469901,66.0348069 9.9009901,68.3684211 C9.90294947,68.6135616 9.87972611,68.8582581 9.83168317,69.0986842 C9.49751123,71.1169425 7.76331618,72.6083899 5.71129033,72.6423163 C3.65926448,72.6762427 1.87639456,71.2429433 1.47524752,69.2368421 C1.4238834,68.9501713 1.39738286,68.6596243 1.3960396,68.3684211 C1.41228519,66.0386391 3.30606178,64.1554919 5.64356436,64.1447368 M5.64356436,62.7631579 C2.53666778,62.7685384 0.0163187844,65.2717826 -8.8895048e-06,68.3684211 C-0.00069295772,68.7530925 0.0391292087,69.1367738 0.118811881,69.5131579 C0.66781063,72.1608953 3.02908918,74.0447785 5.74131087,73.998919 C8.45353256,73.9530594 10.7493424,71.9904319 11.2079208,69.3256579 C11.2664815,69.0000636 11.29301,68.6695485 11.2871287,68.3388158 C11.2871335,65.2306137 8.76201978,62.7093908 5.64356436,62.7039474 L5.64356436,62.7631579 Z" id="Shape" fill="#032663"></path>
                <path d="M99.009901,68.5559211 L99.009901,68.5559211 C99.0202417,68.493846 99.0202417,68.4304961 99.009901,68.3684211 L99.009901,68.3684211 C99.009901,68.3684211 99.009901,68.3684211 99.009901,68.3684211 C99.0146422,68.3257884 99.0146422,68.2827642 99.009901,68.2401316 C99.0189982,68.1978491 99.0189982,68.1541246 99.009901,68.1118421 L98.9405941,67.9934211 C98.9242874,67.9616357 98.9043534,67.9318332 98.8811881,67.9046053 L94.3960396,63.0394737 C94.2724624,62.9001556 94.0977492,62.816381 93.9114098,62.8070946 C93.7250703,62.7978083 93.5428444,62.8637947 93.4059406,62.9901316 C93.2703323,63.1186708 93.1935641,63.2970288 93.1935641,63.4835526 C93.1935641,63.6700765 93.2703323,63.8484345 93.4059406,63.9769737 L96.8514851,67.7269737 L71.4653465,67.7269737 C71.1961181,67.6949579 70.9324169,67.8201214 70.7876621,68.0486308 C70.6429073,68.2771403 70.6429073,68.5682545 70.7876621,68.7967639 C70.9324169,69.0252733 71.1961181,69.1504368 71.4653465,69.1184211 L96.7227723,69.1184211 L93.3465347,72.8585526 C93.0904344,73.1477228 93.1169876,73.5888202 93.4059406,73.8453947 C93.5362993,73.9780039 93.7147246,74.0527323 93.9009901,74.0527323 C94.0872556,74.0527323 94.2656809,73.9780039 94.3960396,73.8453947 L98.7326733,69.0296053 C98.8885482,68.9182679 98.9893917,68.745962 99.009901,68.5559211 L99.009901,68.5559211 Z" id="Path" fill="#032663"></path>
                <path d="M50.5841584,69.0789474 C69.6879304,69.0299848 85.148578,53.5804673 85.1485149,34.5394737 C85.1485149,34.2236842 85.1485149,33.8980263 85.1485149,33.5526316 L88.8316832,36.8289474 C88.9607688,36.9412662 89.1256925,37.0042207 89.2970297,37.0065789 C89.4960679,37.0072553 89.686326,36.9249621 89.8217822,36.7796053 C90.0778824,36.4904351 90.0513292,36.0493377 89.7623762,35.7927632 L85.039604,31.5789474 C84.644814,26.6301118 83.1607843,21.8287772 80.6930693,17.5164474 C77.8874965,13.0002843 74.2371119,9.0637348 69.9405941,5.92105263 C68.3048781,4.75753296 66.5530177,3.76543199 64.7128713,2.96052632 C60.267685,0.984803117 55.4512284,-0.0244357861 50.5841584,-0.000433352479 C37.7128713,-0.000433352479 25.8910891,7.63815789 18.990099,20.4276316 C16.698336,24.8603865 15.6127342,29.8145902 15.8415842,34.7960526 L12.0594059,31.4309211 C11.7790482,31.2573822 11.4148075,31.3049514 11.1887713,31.5446244 C10.9627351,31.7842975 10.9376089,32.1495858 11.1287129,32.4177632 L15.950495,36.7006579 C16.159561,39.4885855 16.7149608,42.2398756 17.6039604,44.8914474 C19.9950475,52.4059343 24.8842966,58.8837643 31.4653465,63.2565789 C31.6492728,63.49032 31.9625303,63.5806904 32.2432821,63.4810023 C32.5240339,63.3813143 32.7094081,63.1138921 32.7036356,62.816893 C32.6978631,62.5198939 32.5022366,62.2598282 32.2178218,62.1710526 C25.8875327,57.964601 21.1891026,51.7287588 18.9009901,44.4967105 C18.0749123,41.9347644 17.5531957,39.2850805 17.3465347,36.6019737 L21.9108911,32.4572368 C22.1118328,32.1876232 22.089094,31.8130269 21.8570052,31.5695265 C21.6249163,31.3260261 21.250743,31.2841944 20.970297,31.4703947 L17.2475248,34.8552632 C17.0214841,30.1125218 18.0455558,25.3934712 20.2178218,21.1677632 C26.8712871,8.83223684 38.2178218,1.43092105 50.5841584,1.43092105 C55.2524418,1.40878763 59.8723144,2.37412138 64.1386139,4.26315789 C65.8795073,5.01647672 67.5383418,5.94567507 69.0891089,7.03618421 C73.2242724,10.075821 76.7506091,13.8616948 79.4851485,18.1973684 C81.828826,22.3044044 83.2477906,26.870563 83.6435644,31.5789474 L78.960396,35.8322368 C78.6885588,36.1053925 78.6885588,36.5459233 78.960396,36.8190789 C79.0905177,36.9660524 79.278608,37.0489725 79.4752475,37.0460526 C79.6498376,37.0451716 79.8183734,36.9821786 79.950495,36.8684211 L83.7920792,33.3651316 C83.7920792,33.75 83.7920792,34.1348684 83.7920792,34.5098684 C83.7975709,52.8032221 68.9378577,67.6449657 50.5841584,67.6776316 L10.7029703,67.6776316 C10.4337419,67.6456158 10.1700407,67.7707793 10.0252859,67.9992887 C9.88053108,68.2277982 9.88053108,68.5189124 10.0252859,68.7474218 C10.1700407,68.9759312 10.4337419,69.1010947 10.7029703,69.0690789 L50.5841584,69.0690789 L50.5841584,69.0789474 Z" id="Path" fill="#A8C5DD"></path>
                <path d="M67.039604,36.0888158 L67.039604,31.5789474 L62.3762376,31.5789474 C62.0773289,30.3520373 61.5932654,29.1774695 60.9405941,28.0953947 L64.2376238,24.8092105 L60.1584158,20.7236842 L56.8613861,24 C55.7603421,23.3734036 54.5821186,22.8923854 53.3564356,22.5690789 L53.3564356,17.9309211 L47.6534653,17.9309211 L47.6534653,22.5690789 C46.4273127,22.8909889 45.2489107,23.3720799 44.1485149,24 L40.8415842,20.7236842 L36.7821782,24.7598684 L40.0792079,28.0460526 C39.4471265,29.1592741 38.9549747,30.3458331 38.6138614,31.5789474 L33.970297,31.5789474 L33.970297,36.1184211 L38.6138614,36.1184211 C38.804648,37.7338254 39.294809,39.2998581 40.0594059,40.7368421 L36.7623762,44.0230263 L40.8217822,48.0690789 L44.1287129,44.7828947 C45.2713928,45.3200141 46.4412847,45.7976309 47.6336634,46.2138158 L47.6336634,50.8618421 L53.3366337,50.8618421 L53.3366337,46.1842105 C54.5283483,45.766284 55.6981517,45.2887034 56.8415842,44.7532895 L60.1386139,48.0394737 L64.2079208,43.9934211 L60.9108911,40.7072368 C61.8192272,39.3328202 62.326545,37.733876 62.3762376,36.0888158 L67.039604,36.0888158 Z M61,35.9407895 C60.9780597,37.3422268 60.5630709,38.709578 59.8019802,39.8881579 L59.8019802,39.9671053 L59.2376238,40.8848684 L60,41.6447368 L62.3366337,43.9638158 L60.2079208,46.0657895 L57.8811881,43.7565789 L57.1188119,42.9967105 L56.1881188,43.5592105 C55.5060032,43.9141422 54.7936397,44.2080575 54.0594059,44.4375 C53.6089395,44.5815146 53.1689553,44.7562699 52.7425743,44.9605263 L51.980198,45.3947368 L51.980198,49.4802632 L49.009901,49.4802632 L49.009901,45.3947368 L48.2970297,45.0098684 C47.8733909,44.8070906 47.4368006,44.6323696 46.990099,44.4868421 C46.2476213,44.2584519 45.528294,43.9610947 44.8415842,43.5986842 L43.9207921,43.0361842 L43.1485149,43.8059211 L40.8217822,46.1151316 L38.7029703,44.0131579 L41.029703,41.6940789 L41.8019802,40.9342105 L41.2376238,40.0164474 C40.5674078,38.7408049 40.1410187,37.3520695 39.980198,35.9210526 L39.8217822,34.7368421 L35.3465347,34.7368421 L35.3465347,32.9210526 L39.7227723,32.9210526 L39.970297,31.875 C40.2759939,30.7953893 40.7080032,29.7553529 41.2574257,28.7763158 L41.8217822,27.8585526 L41.049505,27.0986842 L38.7227723,24.7796053 L40.8415842,22.6973684 L43.1782178,25.0065789 L43.9405941,25.7664474 L44.8613861,25.2138158 C45.8304228,24.6629708 46.8648806,24.2352985 47.9405941,23.9407895 L49.029703,23.7138158 L49.029703,19.3125 L52,19.3125 L52,23.6842105 L53.1089109,23.9013158 C54.1750837,24.1916514 55.1998262,24.6161175 56.1584158,25.1644737 L57.0891089,25.7171053 L57.8514851,24.9572368 L60.1584158,22.6973684 L62.2871287,24.7993421 L59.950495,27.1184211 L59.1881188,27.8782895 L59.7524752,28.7960526 C60.3300621,29.7600883 60.7605179,30.8044178 61.029703,31.8947368 L61.2871287,32.9407895 L65.6633663,32.9407895 L65.6633663,34.7368421 L61.1386139,34.7368421 L61,35.9407895 Z" id="Shape" fill="#2969F6"></path>
                <path d="M50.4950495,28.1546053 C47.0404628,28.1600534 44.2438856,30.9547906 44.2475247,34.3980159 C44.2511709,37.8412412 47.0536551,40.630094 50.5082456,40.6282817 C53.9628361,40.6264676 56.7623762,37.8346746 56.7623762,34.3914474 C56.7569142,30.9453389 53.9525356,28.1546053 50.4950495,28.1546053 Z M50.4950495,39.2565789 C47.8004648,39.2239513 45.639987,37.0251051 45.6635628,34.3392888 C45.6871387,31.6534725 47.8858853,29.4926397 50.5806303,29.5069372 C53.2753752,29.5213771 55.4508007,31.7055334 55.4455541,34.3914474 C55.4429975,35.6929907 54.9183767,36.9394766 53.9885214,37.8532981 C53.0586661,38.7671195 51.8007945,39.2723897 50.4950495,39.2565789 Z" id="Shape" fill="#2969F6"></path>
            </g>
        </g>
    </g>
</svg>

<svg width="100" height="75" xmlns="http://www.w3.org/2000/svg"><g fill-rule="nonzero" fill="none"><path d="M5.644 64.145A4.26 4.26 0 019.9 68.368a3.58 3.58 0 01-.07.73 4.243 4.243 0 01-4.12 3.544 4.244 4.244 0 01-4.236-3.405 5.056 5.056 0 01-.079-.869 4.26 4.26 0 014.248-4.223m0-1.382C2.537 62.77.016 65.272 0 68.368a5.64 5.64 0 005.741 5.63 5.638 5.638 0 005.467-4.672c.058-.326.085-.656.08-.987 0-3.108-2.526-5.63-5.644-5.635v.06zM99.01 68.556a.57.57 0 000-.188.58.58 0 000-.128.305.305 0 000-.128l-.07-.119a.464.464 0 00-.059-.088l-4.485-4.866a.694.694 0 00-.99-.049.68.68 0 000 .987l3.445 3.75H71.465a.699.699 0 100 1.391h25.258l-3.376 3.74c-.257.29-.23.73.059.987a.694.694 0 00.99 0l4.337-4.815a.67.67 0 00.277-.474z" fill="#032663"/><path d="M50.584 69.079C69.688 69.03 85.15 53.58 85.15 34.539v-.986l3.683 3.276c.129.112.294.175.465.178.2 0 .39-.082.525-.227a.699.699 0 00-.06-.987l-4.722-4.214a33.71 33.71 0 00-4.347-14.063A41.5 41.5 0 0069.941 5.921a29.224 29.224 0 00-5.228-2.96A34.371 34.371 0 0050.584 0C37.713 0 25.891 7.638 18.99 20.428a28.442 28.442 0 00-3.148 14.368l-3.783-3.365a.695.695 0 00-.87.114.69.69 0 00-.06.873L15.95 36.7c.21 2.788.765 5.539 1.654 8.19a34.68 34.68 0 0013.861 18.366.694.694 0 001.239-.44.691.691 0 00-.486-.646A33.277 33.277 0 0118.9 44.497a34.311 34.311 0 01-1.554-7.895l4.564-4.145a.69.69 0 00-.054-.887.695.695 0 00-.887-.1l-3.722 3.385a27.113 27.113 0 012.97-13.687C26.87 8.832 38.218 1.43 50.584 1.43A33.093 33.093 0 0164.14 4.263c1.74.753 3.4 1.683 4.95 2.773a40.997 40.997 0 0110.396 11.161 32.489 32.489 0 014.159 13.382l-4.684 4.253a.699.699 0 000 .987c.13.147.319.23.515.227a.734.734 0 00.475-.178l3.842-3.503v1.145c.006 18.293-14.854 33.135-33.208 33.168H10.703a.699.699 0 100 1.391h39.881v.01z" fill="#A8C5DD"/><path d="M67.04 36.089v-4.51h-4.664a12.45 12.45 0 00-1.435-3.484l3.297-3.286-4.08-4.085L56.861 24a14.631 14.631 0 00-3.505-1.43v-4.64h-5.703v4.64A14.502 14.502 0 0044.15 24l-3.307-3.276-4.06 4.036 3.297 3.286a15.554 15.554 0 00-1.465 3.533H33.97v4.54h4.644c.19 1.615.68 3.18 1.445 4.618l-3.297 3.286 4.06 4.046 3.307-3.286a36.564 36.564 0 003.505 1.43v4.649h5.703v-4.678a37.635 37.635 0 003.505-1.43l3.297 3.285 4.069-4.046-3.297-3.286a8.861 8.861 0 001.465-4.618h4.664zM61 35.94a7.492 7.492 0 01-1.198 3.947v.08l-.564.917.762.76 2.337 2.319-2.13 2.102-2.326-2.31-.762-.76-.93.563c-.683.355-1.395.65-2.13.879-.45.144-.89.318-1.316.523l-.763.434v4.085h-2.97v-4.085l-.713-.385c-.424-.203-.86-.378-1.307-.523a12.439 12.439 0 01-2.148-.888l-.921-.563-.772.77-2.327 2.31-2.119-2.103 2.327-2.319.772-.76-.564-.918a11.587 11.587 0 01-1.258-4.095l-.158-1.184h-4.475V32.92h4.376l.247-1.046c.306-1.08.738-2.12 1.287-3.099l.565-.917-.772-.76-2.327-2.32 2.119-2.082 2.336 2.31.763.76.92-.553a13.38 13.38 0 013.08-1.273l1.089-.227v-4.401H52v4.371l1.109.217c1.066.29 2.09.715 3.05 1.263l.93.553.762-.76 2.307-2.26 2.13 2.102-2.338 2.32-.762.76.564.917a11.298 11.298 0 011.278 3.099l.257 1.046h4.376v1.796H61.14L61 35.94z" fill="#2969F6"/><path d="M50.495 28.155c-3.455.005-6.251 2.8-6.247 6.243.003 3.443 2.806 6.232 6.26 6.23 3.455-.002 6.254-2.793 6.254-6.237-.005-3.446-2.81-6.236-6.267-6.236zm0 11.102c-2.695-.033-4.855-2.232-4.831-4.918.023-2.686 2.222-4.846 4.917-4.832 2.694.014 4.87 2.199 4.865 4.884a4.867 4.867 0 01-1.457 3.462 4.9 4.9 0 01-3.494 1.404z" fill="#2969F6"/></g></svg>
